X:47
T:New Ministry, The
M:2/4
L:1/8
B:Thompson's Compleat Collection of 200 Favourite Country Dances, vol. 3 (London, 1773)
Z:Transcribed and edited by Flynn Titford-Mock, 2007
Z:abc's:AK/Fiddler's Companion
K:C
c2 (c/d/e) | dB AG | cegc | B2G2 | c2 (c/d/e) | dB GF | EcDB | c2 [C2c2] :|
|: g(e e)(f/g/) | a(ff)a | f(d d)(e/f/) | g(e e)(g/f/) | e(c c)(d/e/) | (f/g/a)
(e/f/g) | (B/c/d) GB | c2 [C2c2] :|

